src/svg/comment.svg

<svg xmlns="http://www.w3.org/2000/svg" width="1000" height="1000" viewBox="0 0 1000 1000"><path fill-rule="evenodd" clip-rule="evenodd" fill="#020202" d="M793.856 745.332h-185.005l-108.811 130.586-108.891-130.586h-184.991c-72.067 0-130.601-58.438-130.601-130.586v-391.77099999999996c0-54.071 43.9-97.892 97.971-97.892h652.943c54.07 0 97.971 43.82 97.971 97.892v391.771c0 72.149-58.502 130.586-130.586 130.586zm-522.357-391.772c-36.089 0-65.341 29.268-65.341 65.341s29.252 65.261 65.341 65.261c36.074 0 65.245-29.188 65.245-65.261s-29.171-65.341-65.245-65.341zm228.541 0c-36.074 0-65.325 29.268-65.325 65.341s29.251 65.261 65.325 65.261c35.994 0 65.262-29.188 65.262-65.261s-29.268-65.341-65.262-65.341zm228.492 0c-36.09 0-65.26 29.268-65.26 65.341s29.17 65.261 65.26 65.261c36.059 0 65.324-29.188 65.324-65.261s-29.265-65.341-65.324-65.341z"/></svg>

<?xml version="1.0" encoding="utf-8"?>
<!-- Generator: Adobe Illustrator 16.0.0, SVG Export Plug-In . SVG Version: 6.00 Build 0)  -->
<!DOCTYPE svg PUBLIC "-//W3C//DTD SVG 1.1//EN" "http://www.w3.org/Graphics/SVG/1.1/DTD/svg11.dtd">
<svg version="1.1" id="Layer_1" xmlns="http://www.w3.org/2000/svg" xmlns:xlink="http://www.w3.org/1999/xlink" x="0px" y="0px"
	 width="1000px" height="1000px" viewBox="0 0 1000 1000" enable-background="new 0 0 1000 1000" xml:space="preserve">
<path fill-rule="evenodd" clip-rule="evenodd" fill="#020202" d="M793.856,745.332H608.851L500.04,875.918L391.149,745.332H206.158
	c-72.067,0-130.601-58.438-130.601-130.586V582.1V451.515v-228.54c0-54.071,43.9-97.892,97.971-97.892h652.943
	c54.07,0,97.971,43.82,97.971,97.892v228.54V582.1v32.646C924.442,686.895,865.94,745.332,793.856,745.332L793.856,745.332z
	 M271.499,353.56c-36.089,0-65.341,29.268-65.341,65.341s29.252,65.261,65.341,65.261c36.074,0,65.245-29.188,65.245-65.261
	S307.573,353.56,271.499,353.56L271.499,353.56z M500.04,353.56c-36.074,0-65.325,29.268-65.325,65.341s29.251,65.261,65.325,65.261
	c35.994,0,65.262-29.188,65.262-65.261S536.034,353.56,500.04,353.56L500.04,353.56z M728.532,353.56
	c-36.09,0-65.26,29.268-65.26,65.341s29.17,65.261,65.26,65.261c36.059,0,65.324-29.188,65.324-65.261
	S764.591,353.56,728.532,353.56L728.532,353.56z"/>
</svg>
